X:488
M:C|
L:1/8
K:D
f/g/|adfd fadf|bege gbeg|adfd fadf|geaf d/d/d df|adfd fadf|
bege gbeg|faef deBd|AdAF D/D/D D||

